public/icons/google.svg

<svg width="56" height="56" viewBox="0 0 56 56" fill="none" xmlns="http://www.w3.org/2000/svg">
<path d="M51.7723 28.563C51.7723 26.8071 51.6148 25.1188 51.3221 23.498H28.001V33.0764H41.3273C40.7533 36.1716 39.0087 38.7942 36.3862 40.55V46.763H44.3888C49.071 42.4522 51.7723 36.1041 51.7723 28.563Z" fill="#4285F4"/>
<path d="M28.0001 52.7619C34.6858 52.7619 40.291 50.5445 44.388 46.7627L36.3854 40.5497C34.1681 42.0354 31.3317 42.9134 28.0001 42.9134C21.5508 42.9134 16.092 38.5575 14.1448 32.7047H5.87207V39.1203C9.94652 47.2129 18.3205 52.7619 28.0001 52.7619Z" fill="#34A853"/>
<path d="M14.1457 32.7047C13.6505 31.219 13.3691 29.632 13.3691 28C13.3691 26.368 13.6505 24.7809 14.1457 23.2952V16.8796H5.87302C4.13969 20.3302 3.23773 24.1385 3.23926 28C3.23926 31.9957 4.19597 35.7775 5.87302 39.1203L14.1457 32.7047Z" fill="#FBBC05"/>
<path d="M28.0001 13.0865C31.6356 13.0865 34.8997 14.3359 37.4659 16.7896L44.5681 9.68739C40.2798 5.69172 34.6746 3.23804 28.0001 3.23804C18.3205 3.23804 9.94652 8.78695 5.87207 16.8796L14.1448 23.2952C16.092 17.4424 21.5508 13.0865 28.0001 13.0865Z" fill="#EA4335"/>
</svg>

<svg xmlns="http://www.w3.org/2000/svg" width="56" height="56" fill="none"><path fill="#4285F4" d="M51.772 28.563c0-1.756-.157-3.444-.45-5.065H28.001v9.578h13.326c-.574 3.096-2.318 5.718-4.94 7.474v6.213h8.002c4.682-4.31 7.383-10.659 7.383-18.2"/><path fill="#34A853" d="M28 52.762c6.686 0 12.291-2.218 16.388-6l-8.003-6.212c-2.217 1.485-5.053 2.363-8.385 2.363-6.45 0-11.908-4.355-13.855-10.208H5.872v6.415C9.947 47.213 18.321 52.762 28 52.762"/><path fill="#FBBC05" d="M14.146 32.705A14.9 14.9 0 0 1 13.369 28c0-1.632.281-3.22.777-4.705V16.88H5.873A24.75 24.75 0 0 0 3.239 28c0 3.996.957 7.778 2.634 11.12z"/><path fill="#EA4335" d="M28 13.087c3.636 0 6.9 1.249 9.466 3.703l7.102-7.103C40.28 5.692 34.675 3.238 28 3.238c-9.68 0-18.053 5.549-22.128 13.642l8.273 6.415C16.092 17.442 21.55 13.086 28 13.086"/></svg>
